X: 226
T: Polska efter Byss-Kalle (nr 27)
S: efter Byss-Kalle
B: 57 låtar efter Byss-Kalle nr 27
O: Uppland
R: Slängpolska
N: Jämför [[http://www.samlingarna.sormlandsspel.se/wp-content/uploads/2013/08/56_sormlandska_latar1.pdf|56 Sörmländska låtar]] (pdf) nr 17 efter [[Personer/A G Rosenberg]], [[Platser/Flodafors]].
M: 3/4
L: 1/16
Z: Nils L
K: C
GF | E2G2 c2e2 (de)(fd) | e2c2 e2g2 (ga)(gf) | (ef)(de) c4 (ed)(ef) |
(ed)(cB) c2G2 {/G}F2ED | E2G2 c2e2 (de)(fd) | e2c2 e2g2 (ga)(gf) |
(ef)(de) c2>e2 d2>f2 | (ed)(cB) d4 c2 :: GF | [E4G,4] G2EG c2ec |
A2cA (FA)cA F4 | F2DF A2FA d2fd | B2dB (GB)dB G2g2 |
g2(eg) {/g}(fe)fd e2c2 | (de)(fd) (ge)(ce) d2>f2 | (ef)(ge) (fe)fd e2c2 |
(de)(fd) (ge)(ce) d2(Bd) | (cB)(ce) (dc)(BA) (GF)(EF) | (DG)(Bd) c4 c'2 :|
(:musicend:)

(:music:)
